X: 9646
T: Day The Ass Ran Away, The
R: slide
M: 12/8
K: Dmajor
A3|:dcd A2 D F2 G A2 B|=cBc A2 D FGA D2 A|
dcd A2 D F2 G Adf|1 ecA ABc [d3D3] dfe:|2 ecA ABc [d3D3] d2 e||
|:f2 d def ga/g/e efg|afd Bcd ecA Aae|
f2 d def ga/g/e efg|1 afd ecA [d3D3] d2 e:|2 afd ecA [d3D3] f2 e||

